rospo-icon-theme-classic-common/64x64/apps/chrome-macmgoeeggnlnmpiojbcniblabkdjphe-Default.svg

<svg height="64" width="64" xmlns="http://www.w3.org/2000/svg"><path d="m60 58.2v-50.4c0-1.5512-1.2488-2.8-2.8-2.8h-50.4c-1.5512 0-2.8 1.2488-2.8 2.8v50.4c0 1.5512 1.2488 2.8 2.8 2.8h50.4c1.5512 0 2.8-1.2488 2.8-2.8z" opacity=".2"/><path d="m60 57.2v-50.4c0-1.5512-1.2488-2.8-2.8-2.8h-50.4c-1.5512 0-2.8 1.2488-2.8 2.8v50.4c0 1.5512 1.2488 2.8 2.8 2.8h50.4c1.5512 0 2.8-1.2488 2.8-2.8z" fill="#70b943"/><path d="m27 19c-1.02604.000181-1.980822.524723-2.53125 1.390625l-10.472656 13.332031c-1.284203 1.458316-1.99373 3.334188-1.996094 5.277344 0 4.418278 3.581722 8 8 8 4.050162-.0032 7.458918-3.032899 7.9375-7.054688.01795.01398.03852.0234.05664.03711a5 5 0 0 0 4.00586 2.017578 5 5 0 0 0 4.005859-2.017578c.01812-.01371.03869-.02313.05664-.03711.478583 4.021789 3.887339 7.051422 7.937501 7.054688 4.418278 0 8-3.581722 8-8-.0024-1.943156-.71189-3.819028-1.996094-5.277344l-10.472656-13.332031c-.550428-.865902-1.50521-1.390444-2.53125-1.390625-1.656854 0-3 1.343146-3 3 .00055.955308.456044 1.853243 1.226562 2.417969l-.09375.105469c-.08336-.10598-.172001-.207666-.265624-.304688-.09302-.09598-.190799-.18724-.292969-.273438-.10138-.08594-.206981-.166759-.316407-.242187-.09744-.06692-.197801-.12948-.300781-.1875-.0194-.0106-.03898-.02103-.05859-.03125-.09942-.05376-.201074-.103278-.304688-.148437-.0182-.008-.03641-.0158-.05469-.02344-.08478-.0355-.17078-.06808-.257812-.09766-.04532-.0152-.0909-.02947-.136719-.04297-.0992-.02992-.199539-.056-.300781-.07813-.02468-.0054-.04944-.01063-.07422-.01563-.07388-.0138-.14812-.02554-.222656-.03516-.07784-.0114-.155999-.02054-.234375-.02734-.10394-.009365-.20817-.014478-.3125-.015608-.10434.0011-.208576.0064-.3125.01563-.07838.0068-.156539.016-.234375.02734-.07454.0096-.14878.02134-.222656.03516-.02478.005-.04952.01022-.07422.01563-.10124.02214-.201571.0482-.300781.07813-.04582.0136-.0914.02783-.136719.04297-.08704.02958-.17302.06216-.257812.09766-.0182.0076-.03653.0154-.05469.02344-.10362.04516-.205268.09468-.304688.148437-.0196.0102-.03915.02067-.05859.03125-.10298.05802-.203342.12058-.300781.1875-.109421.07542-.215027.156259-.316407.242187-.10216.0862-.199939.17746-.292969.273438-.09362.09702-.18228.19872-.265624.304688l-.09375-.105469c.770502-.5646 1.226012-1.462683 1.226562-2.417991 0-1.656854-1.343146-3-3-3zm-7 15c2.761423 0 5 2.238577 5 5s-2.238577 5-5 5-5-2.238577-5-5 2.238577-5 5-5zm12 0a3 3 0 0 1 3 3 3 3 0 0 1 -3 3 3 3 0 0 1 -3-3 3 3 0 0 1 3-3zm12 0c2.761423 0 5 2.238577 5 5s-2.238577 5-5 5-5-2.238577-5-5 2.238577-5 5-5z" opacity=".2"/><path d="m27 18c-1.02604.000181-1.980822.524723-2.53125 1.390625l-10.472656 13.332031c-1.284203 1.458316-1.99373 3.334188-1.996094 5.277344 0 4.418278 3.581722 8 8 8 4.050162-.0032 7.458918-3.032899 7.9375-7.054688.01795.01398.03852.0234.05664.03711a5 5 0 0 0 4.00586 2.017578 5 5 0 0 0 4.005859-2.017578c.01812-.01371.03869-.02313.05664-.03711.478583 4.021789 3.887339 7.051422 7.937501 7.054688 4.418278 0 8-3.581722 8-8-.0024-1.943156-.71189-3.819028-1.996094-5.277344l-10.472656-13.332031c-.550428-.865902-1.50521-1.390444-2.53125-1.390625-1.656854 0-3 1.343146-3 3 .00055.955308.456044 1.853243 1.226562 2.417969l-.09375.105469c-.08336-.10598-.172001-.207666-.265624-.304688-.09302-.09598-.190799-.18724-.292969-.273438-.10138-.08594-.206981-.166759-.316407-.242187-.09744-.06692-.197801-.12948-.300781-.1875-.0194-.0106-.03898-.02103-.05859-.03125-.09942-.05376-.201074-.103278-.304688-.148437-.0182-.008-.03641-.0158-.05469-.02344-.08478-.0355-.17078-.06808-.257812-.09766-.04532-.0152-.0909-.02947-.136719-.04297-.0992-.02992-.199539-.056-.300781-.07813-.02468-.0054-.04944-.01063-.07422-.01563-.07388-.0138-.14812-.02554-.222656-.03516-.07784-.0114-.155999-.02054-.234375-.02734-.10394-.009365-.20817-.014478-.3125-.015608-.10434.0011-.208576.0064-.3125.01563-.07838.0068-.156539.016-.234375.02734-.07454.0096-.14878.02134-.222656.03516-.02478.005-.04952.01022-.07422.01563-.10124.02214-.201571.0482-.300781.07813-.04582.0136-.0914.02783-.136719.04297-.08704.02958-.17302.06216-.257812.09766-.0182.0076-.03653.0154-.05469.02344-.10362.04516-.205268.09468-.304688.148437-.0196.0102-.03915.02067-.05859.03125-.10298.05802-.203342.12058-.300781.1875-.109421.07542-.215027.156259-.316407.242187-.10216.0862-.199939.17746-.292969.273438-.09362.09702-.18228.19872-.265624.304688l-.09375-.105469c.770502-.5646 1.226012-1.462683 1.226562-2.417991 0-1.656854-1.343146-3-3-3zm-7 15c2.761423 0 5 2.238577 5 5s-2.238577 5-5 5-5-2.238577-5-5 2.238577-5 5-5zm12 0a3 3 0 0 1 3 3 3 3 0 0 1 -3 3 3 3 0 0 1 -3-3 3 3 0 0 1 3-3zm12 0c2.761423 0 5 2.238577 5 5s-2.238577 5-5 5-5-2.238577-5-5 2.238577-5 5-5z" fill="#fff"/><path d="m6.8007812 4c-1.5512 0-2.8007812 1.2495812-2.8007812 2.8007812v1c0-1.5511999 1.2495812-2.8007812 2.8007812-2.8007812h50.3984378c1.5512 0 2.800781 1.2495812 2.800781 2.8007812v-1c0-1.5511999-1.249581-2.8007812-2.800781-2.8007812z" fill="#fff" opacity=".2"/></svg>

<svg xmlns="http://www.w3.org/2000/svg" width="64" height="64" version="1">
 <path style="opacity:0.2" d="M 60,58.2 60,7.8 C 60,6.2488 58.7512,5 57.2,5 L 6.8,5 C 5.2488,5 4,6.2488 4,7.8 L 4,58.2 C 4,59.7512 5.2488,61 6.8,61 l 50.4,0 c 1.5512,0 2.8,-1.2488 2.8,-2.8 z"/>
 <path style="fill:#70b943" d="M 60,57.2 60,6.8 C 60,5.2488 58.7512,4 57.2,4 L 6.8,4 C 5.2488,4 4,5.2488 4,6.8 L 4,57.2 C 4,58.7512 5.2488,60 6.8,60 l 50.4,0 c 1.5512,0 2.8,-1.2488 2.8,-2.8 z"/>
 <path style="opacity:0.2" d="m 27,19 c -1.02604,1.81e-4 -1.980822,0.524723 -2.53125,1.390625 L 13.996094,33.722656 C 12.711891,35.180972 12.002364,37.056844 12,39 c 0,4.418278 3.581722,8 8,8 4.050162,-0.0032 7.458918,-3.032899 7.9375,-7.054688 0.01795,0.01398 0.03852,0.0234 0.05664,0.03711 A 5,5 0 0 0 32,42 5,5 0 0 0 36.005859,39.982422 c 0.01812,-0.01371 0.03869,-0.02313 0.05664,-0.03711 C 36.541082,43.967101 39.949838,46.996734 44,47 c 4.418278,0 8,-3.581722 8,-8 -0.0024,-1.943156 -0.71189,-3.819028 -1.996094,-5.277344 L 39.53125,20.390625 C 38.980822,19.524723 38.02604,19.000181 37,19 c -1.656854,0 -3,1.343146 -3,3 5.5e-4,0.955308 0.456044,1.853243 1.226562,2.417969 l -0.09375,0.105469 c -0.08336,-0.10598 -0.172001,-0.207666 -0.265624,-0.304688 -0.09302,-0.09598 -0.190799,-0.18724 -0.292969,-0.273438 -0.10138,-0.08594 -0.206981,-0.166759 -0.316407,-0.242187 -0.09744,-0.06692 -0.197801,-0.12948 -0.300781,-0.1875 -0.0194,-0.0106 -0.03898,-0.02103 -0.05859,-0.03125 -0.09942,-0.05376 -0.201074,-0.103278 -0.304688,-0.148437 -0.0182,-0.008 -0.03641,-0.0158 -0.05469,-0.02344 -0.08478,-0.0355 -0.17078,-0.06808 -0.257812,-0.09766 -0.04532,-0.0152 -0.0909,-0.02947 -0.136719,-0.04297 -0.0992,-0.02992 -0.199539,-0.056 -0.300781,-0.07813 -0.02468,-0.0054 -0.04944,-0.01063 -0.07422,-0.01563 -0.07388,-0.0138 -0.14812,-0.02554 -0.222656,-0.03516 -0.07784,-0.0114 -0.155999,-0.02054 -0.234375,-0.02734 C 32.20856,23.006243 32.10433,23.00113 32,23 c -0.10434,0.0011 -0.208576,0.0064 -0.3125,0.01563 -0.07838,0.0068 -0.156539,0.016 -0.234375,0.02734 -0.07454,0.0096 -0.14878,0.02134 -0.222656,0.03516 -0.02478,0.005 -0.04952,0.01022 -0.07422,0.01563 -0.10124,0.02214 -0.201571,0.0482 -0.300781,0.07813 -0.04582,0.0136 -0.0914,0.02783 -0.136719,0.04297 -0.08704,0.02958 -0.17302,0.06216 -0.257812,0.09766 -0.0182,0.0076 -0.03653,0.0154 -0.05469,0.02344 -0.10362,0.04516 -0.205268,0.09468 -0.304688,0.148437 -0.0196,0.0102 -0.03915,0.02067 -0.05859,0.03125 -0.10298,0.05802 -0.203342,0.12058 -0.300781,0.1875 -0.109421,0.07542 -0.215027,0.156259 -0.316407,0.242187 -0.10216,0.0862 -0.199939,0.17746 -0.292969,0.273438 -0.09362,0.09702 -0.18228,0.19872 -0.265624,0.304688 l -0.09375,-0.105469 C 29.54394,23.853391 29.99945,22.955308 30,22 30,20.343146 28.656854,19 27,19 Z m -7,15 c 2.761423,0 5,2.238577 5,5 0,2.761423 -2.238577,5 -5,5 -2.761423,0 -5,-2.238577 -5,-5 0,-2.761423 2.238577,-5 5,-5 z m 12,0 a 3,3 0 0 1 3,3 3,3 0 0 1 -3,3 3,3 0 0 1 -3,-3 3,3 0 0 1 3,-3 z m 12,0 c 2.761423,0 5,2.238577 5,5 0,2.761423 -2.238577,5 -5,5 -2.761423,0 -5,-2.238577 -5,-5 0,-2.761423 2.238577,-5 5,-5 z"/>
 <path style="fill:#ffffff" d="m 27,18 c -1.02604,1.81e-4 -1.980822,0.524723 -2.53125,1.390625 L 13.996094,32.722656 C 12.711891,34.180972 12.002364,36.056844 12,38 c 0,4.418278 3.581722,8 8,8 4.050162,-0.0032 7.458918,-3.032899 7.9375,-7.054688 0.01795,0.01398 0.03852,0.0234 0.05664,0.03711 A 5,5 0 0 0 32,41 5,5 0 0 0 36.005859,38.982422 c 0.01812,-0.01371 0.03869,-0.02313 0.05664,-0.03711 C 36.541082,42.967101 39.949838,45.996734 44,46 c 4.418278,0 8,-3.581722 8,-8 -0.0024,-1.943156 -0.71189,-3.819028 -1.996094,-5.277344 L 39.53125,19.390625 C 38.980822,18.524723 38.02604,18.000181 37,18 c -1.656854,0 -3,1.343146 -3,3 5.5e-4,0.955308 0.456044,1.853243 1.226562,2.417969 l -0.09375,0.105469 c -0.08336,-0.10598 -0.172001,-0.207666 -0.265624,-0.304688 -0.09302,-0.09598 -0.190799,-0.18724 -0.292969,-0.273438 -0.10138,-0.08594 -0.206981,-0.166759 -0.316407,-0.242187 -0.09744,-0.06692 -0.197801,-0.12948 -0.300781,-0.1875 -0.0194,-0.0106 -0.03898,-0.02103 -0.05859,-0.03125 -0.09942,-0.05376 -0.201074,-0.103278 -0.304688,-0.148437 -0.0182,-0.008 -0.03641,-0.0158 -0.05469,-0.02344 -0.08478,-0.0355 -0.17078,-0.06808 -0.257812,-0.09766 -0.04532,-0.0152 -0.0909,-0.02947 -0.136719,-0.04297 -0.0992,-0.02992 -0.199539,-0.056 -0.300781,-0.07813 -0.02468,-0.0054 -0.04944,-0.01063 -0.07422,-0.01563 -0.07388,-0.0138 -0.14812,-0.02554 -0.222656,-0.03516 -0.07784,-0.0114 -0.155999,-0.02054 -0.234375,-0.02734 C 32.20856,22.006243 32.10433,22.00113 32,22 c -0.10434,0.0011 -0.208576,0.0064 -0.3125,0.01563 -0.07838,0.0068 -0.156539,0.016 -0.234375,0.02734 -0.07454,0.0096 -0.14878,0.02134 -0.222656,0.03516 -0.02478,0.005 -0.04952,0.01022 -0.07422,0.01563 -0.10124,0.02214 -0.201571,0.0482 -0.300781,0.07813 -0.04582,0.0136 -0.0914,0.02783 -0.136719,0.04297 -0.08704,0.02958 -0.17302,0.06216 -0.257812,0.09766 -0.0182,0.0076 -0.03653,0.0154 -0.05469,0.02344 -0.10362,0.04516 -0.205268,0.09468 -0.304688,0.148437 -0.0196,0.0102 -0.03915,0.02067 -0.05859,0.03125 -0.10298,0.05802 -0.203342,0.12058 -0.300781,0.1875 -0.109421,0.07542 -0.215027,0.156259 -0.316407,0.242187 -0.10216,0.0862 -0.199939,0.17746 -0.292969,0.273438 -0.09362,0.09702 -0.18228,0.19872 -0.265624,0.304688 l -0.09375,-0.105469 C 29.54394,22.853391 29.99945,21.955308 30,21 30,19.343146 28.656854,18 27,18 Z m -7,15 c 2.761423,0 5,2.238577 5,5 0,2.761423 -2.238577,5 -5,5 -2.761423,0 -5,-2.238577 -5,-5 0,-2.761423 2.238577,-5 5,-5 z m 12,0 a 3,3 0 0 1 3,3 3,3 0 0 1 -3,3 3,3 0 0 1 -3,-3 3,3 0 0 1 3,-3 z m 12,0 c 2.761423,0 5,2.238577 5,5 0,2.761423 -2.238577,5 -5,5 -2.761423,0 -5,-2.238577 -5,-5 0,-2.761423 2.238577,-5 5,-5 z"/>
 <path style="opacity:0.2;fill:#ffffff" d="M 6.8007812 4 C 5.2495812 4 4 5.2495812 4 6.8007812 L 4 7.8007812 C 4 6.2495813 5.2495812 5 6.8007812 5 L 57.199219 5 C 58.750419 5 60 6.2495812 60 7.8007812 L 60 6.8007812 C 60 5.2495813 58.750419 4 57.199219 4 L 6.8007812 4 z"/>
</svg>
